X:234
T:Gubbapolskan efter serganten vid Smålands Husarregemente G.A. Carlsson fr. Wimmerby
T:(SmM I:234)
R:Polska
O:Vimmerby, Småland
B:Småländsk Musiktradition
M:3/4
L:1/16
K:G
G2g2 gfge d2B2|dBGB dcAF G2D2|B2BG c2cA d2d2|edcB dcBc A2A2|
G2g2 gfge d2B2|1dcAF A2G2 G2z2:|2dcAF A2G2 G2 B2]|:AGFE DEFG ABcA|BGDB, G,B,DG BdcB|
AGFE DEFG ABcA|BGDB, G,B,DG BdcB|d2ef gfge d2B2|1dcAF A2G2 G2 B2:|2dcAF A2G2 G4:|

